Origami/22x22/apps/curlew.svg

<svg width="22" height="22" version="1" xmlns="http://www.w3.org/2000/svg">
 <path transform="matrix(0,-1,-1,0,0,0)" d="m-19-21h17c0.554 0 1 0.446 1 1v18c0 0.554-0.446 1-1 1h-17c-0.554 0-1-0.446-1-1v-18c0-0.554 0.446-1 1-1z" style="fill:#4ab1f1"/>
 <path d="m2 1c-0.554 0-1 0.446-1 1v0.5c0-0.554 0.446-1 1-1h18c0.554 0 1 0.446 1 1v-0.5c0-0.554-0.446-1-1-1h-18z" style="fill:#ffffff;opacity:.1"/>
 <path d="m1 20v0.5c0 0.554 0.446 1 1 1h18c0.554 0 1-0.446 1-1v-0.5c0 0.554-0.446 1-1 1h-18c-0.554 0-1-0.446-1-1z" style="opacity:.2"/>
 <path d="m1 20.041992c0 0.532401 0.4314499 0.958008 0.9638672 0.958008h18.072266c0.532413 0 0.963867-0.425607 0.963867-0.958008l-2e-3 -6.009765c-0.41736 0.208969-1.079612 0.762154-1.272461 0.87207-0.540651 0.308268-1.114589 0.121696-1.431641 0.844726-0.117226 0.267359-0.07953 1.180251-0.339844 1.224477-0.454054 0.077148-1.954054 0.027-2.171825 0.177-0.989763 0.564271-2.204273 0.530489-3.295898 0.841687-0.208699 0.05948-0.728498 0.867152-0.943331 0.948813-1.015428 0.385945-2.198366-0.941-3.2470985-0.941-1.372411 0-3.7959015 1.700242-5.1718751 0.752-0.2421409-0.16687-0.6041621-1.004011-0.8828154-1.109926-0.3457827-0.131432-0.8194969-0.187739-1.2392579-0.142074z" style="fill:#4d4d4d"/>
 <path d="m7.9327761 18.075541c-0.4414825-0.218499-0.528285-0.435998-0.336204-0.554707 0.23437-0.144911 0.1002695-0.986843-0.308004-1.933848-0.401331-0.930912-0.406798-0.959553-0.222283-1.165416 0.430702-0.480558 0.4084175-0.50748-0.358656-0.433277-2.1300165 0.20595-2.20422 0.272676-2.939282 0.577995-0.968086 0.402091-1.7683471 0.541372-1.7683471 0.428964 0-0.04765 0.1280154-0.12257 0.2844791-0.166446l0.2844791-0.07968-0.3016411-0.06085c-0.3008075-0.060576-0.2999493-0.061876 0.3103407-0.464528 0.3365908-0.222079 0.9870678-0.968752 1.8120583-1.781726 1.484133-1.462442 2.9203585-3.183284 3.903161-3.6813045 0.2942805-0.149129 0.5596945-0.371584 0.6315895-0.5293735 0.0682-0.149683 0.1240034-0.7059275 0.1240034-1.236085 0-1.123843 0.252688-1.7224665 0.931945-1.9259765 0.379487-0.1137035 0.441811-0.1005285 0.914249 0.1931495 0.314717 0.195637 0.717229 0.6411095 1.061322 0.6837595 1.371477 0.170003 1.866044 0.6935245 2.081023 1.0413735 0.03874 0.062676-0.06477 0.04404-0.230018-0.041415-0.895123-0.462892-1.991664-0.7786445-2.655299-0.4637305-0.542824 0.257587-0.435235 0.420703-0.243134 1.51171 0.260563 1.4798525 0.07715 3.1613705-0.538481 3.9685015-0.147932 0.193963-0.55036 0.559803-0.894286 0.813034-0.343927 0.253196-0.8359384 0.577153-0.9100124 0.719958-0.074075 0.142753-0.224484 0.373783-0.3342435 0.513324-0.171639 0.218218-0.2010915 0.436699-0.210496 1.561697-0.00689 0.824242 0.031645 1.359275 0.104193 1.44671 0.06332 0.07624 0.086234 0.253792 0.05092 0.394562-0.072077 0.287102 0.3554565 0.571134 0.7832965 0.571134 0.1351064 0 0.3360094 0.06825 0.4464514 0.151809 0.185295 0.140173 0.160853 0.15216-0.316431 0.155091-0.3230564 0.0031-0.8820944-0.0785-1.1566929-0.214409zm-0.242976-2.804721c-0.00556-0.184943 0.02388-0.534015 0.065407-0.775855 0.084817-0.493878-0.04538-0.585946-0.260432-0.184101-0.162087 0.302845-0.164365 0.785297-0.00511 1.082877 0.1598265 0.298563 0.211835 0.266657 0.200135-0.122921z" style="fill:#4d4d4d"/>
</svg>

<svg xmlns="http://www.w3.org/2000/svg" width="22" height="22" version="1">
 <path style="fill:#4ab1f1" d="m -19,-21 17,0 c 0.554,0 1,0.446 1,1 l 0,18 c 0,0.554 -0.446,1 -1,1 l -17,0 c -0.554,0 -1,-0.446 -1,-1 l 0,-18 c 0,-0.554 0.446,-1 1,-1 z" transform="matrix(0,-1,-1,0,0,0)"/>
 <path style="opacity:0.1;fill:#ffffff" d="M 2,1 C 1.446,1 1,1.446 1,2 l 0,0.5 c 0,-0.554 0.446,-1 1,-1 l 18,0 c 0.554,0 1,0.446 1,1 L 21,2 C 21,1.446 20.554,1 20,1 L 2,1 Z"/>
 <path style="opacity:0.2" d="m 1,20 0,0.5 c 0,0.554 0.446,1 1,1 l 18,0 c 0.554,0 1,-0.446 1,-1 L 21,20 c 0,0.554 -0.446,1 -1,1 L 2,21 C 1.446,21 1,20.554 1,20 Z"/>
 <path style="fill:#4d4d4d" d="M 1,20.041992 C 1,20.574393 1.4314499,21 1.9638672,21 L 20.036133,21 C 20.568546,21 21,20.574393 21,20.041992 l -0.002,-6.009765 c -0.41736,0.208969 -1.079612,0.762154 -1.272461,0.87207 -0.540651,0.308268 -1.114589,0.121696 -1.431641,0.844726 -0.117226,0.267359 -0.07953,1.180251 -0.339844,1.224477 C 17.5,17.050648 16,17.0005 15.782229,17.1505 14.792466,17.714771 13.577956,17.680989 12.486331,17.992187 12.277632,18.051667 11.757833,18.859339 11.543,18.941 10.527572,19.326945 9.344634,18 8.2959015,18 6.9234905,18 4.5,19.700242 3.1240264,18.752 2.8818855,18.58513 2.5198643,17.747989 2.241211,17.642074 1.8954283,17.510642 1.4217141,17.454335 1.0019531,17.5 Z"/>
 <path style="fill:#4d4d4d" d="m 7.9327761,18.075541 c -0.4414825,-0.218499 -0.528285,-0.435998 -0.336204,-0.554707 0.23437,-0.144911 0.1002695,-0.986843 -0.308004,-1.933848 -0.401331,-0.930912 -0.406798,-0.959553 -0.222283,-1.165416 0.430702,-0.480558 0.4084175,-0.50748 -0.358656,-0.433277 -2.1300165,0.20595 -2.20422,0.272676 -2.939282,0.577995 C 2.8002611,14.968379 2,15.10766 2,14.995252 c 0,-0.04765 0.1280154,-0.12257 0.2844791,-0.166446 l 0.2844791,-0.07968 -0.3016411,-0.06085 C 1.9665096,14.6277 1.9673678,14.6264 2.5776578,14.223748 2.9142486,14.001669 3.5647256,13.254996 4.3897161,12.442022 5.8738491,10.97958 7.3100746,9.258738 8.2928771,8.7607175 8.5871576,8.6115885 8.8525716,8.3891335 8.9244666,8.231344 8.9926666,8.081661 9.04847,7.5254165 9.04847,6.995259 c 0,-1.123843 0.252688,-1.7224665 0.931945,-1.9259765 0.379487,-0.1137035 0.441811,-0.1005285 0.914249,0.1931495 0.314717,0.195637 0.717229,0.6411095 1.061322,0.6837595 1.371477,0.170003 1.866044,0.6935245 2.081023,1.0413735 0.03874,0.062676 -0.06477,0.04404 -0.230018,-0.041415 -0.895123,-0.462892 -1.991664,-0.7786445 -2.655299,-0.4637305 -0.542824,0.257587 -0.435235,0.420703 -0.243134,1.51171 0.260563,1.4798525 0.07715,3.1613705 -0.538481,3.9685015 -0.147932,0.193963 -0.55036,0.559803 -0.894286,0.813034 -0.343927,0.253196 -0.8359384,0.577153 -0.9100124,0.719958 -0.074075,0.142753 -0.224484,0.373783 -0.3342435,0.513324 -0.171639,0.218218 -0.2010915,0.436699 -0.210496,1.561697 -0.00689,0.824242 0.031645,1.359275 0.104193,1.44671 0.06332,0.07624 0.086234,0.253792 0.05092,0.394562 -0.072077,0.287102 0.3554565,0.571134 0.7832965,0.571134 0.1351064,0 0.3360094,0.06825 0.4464514,0.151809 0.185295,0.140173 0.160853,0.15216 -0.316431,0.155091 -0.3230564,0.0031 -0.8820944,-0.0785 -1.1566929,-0.214409 z M 7.6898001,15.27082 c -0.00556,-0.184943 0.02388,-0.534015 0.065407,-0.775855 0.084817,-0.493878 -0.04538,-0.585946 -0.260432,-0.184101 -0.162087,0.302845 -0.164365,0.785297 -0.00511,1.082877 0.1598265,0.298563 0.211835,0.266657 0.200135,-0.122921 z"/>
</svg>
